X:1
T:Arles, 12.11.12.11
T:Arles, 12.11.12.11
T:Charles Hutchinson Gabriel, 1912
T:Public Domain Courtesy of the Cyber Hymnal™
C:Charles Hutchinson Gabriel, 1912
Z:Public Domain
Z:Courtesy of the Cyber Hymnal™
%%score ( 1 2 ) ( 3 4 )
L:1/8
M:3/4
K:Ab
V:1 treble 
V:2 treble 
V:3 bass 
V:4 bass 
V:1
 [CE]2 | [CA]2 [CA]2 [CA]2 | [CA]2 E2 [CA]2 | [Ec]3 [Ec] [Ec]2 | [Ec]2 [EA]2 [Ec]2 | %5
 [Ee]2 [Ee]2 [Ee]2 | [Ee]2 [Ec]2 [EA]2 | [Ed]2 [Ed]2 [Ec]2 | [EB]4 [EB]2 | [=DB]2 [DB]2 [DB]2 | %10
 [EB]2 E2 E2 | [Gd]3 [Ed] [Gd]2 | [Gd]2 [EB]2 [Ed]2 | [Ec]2 [Ee]2 [EA]2 | [FB]2 [Fc]2 [Fd]2 | %15
 [Ec]2 [Ec]2 [DB]2 | [CA]4 |] %17
V:2
 x2 | x6 | x2 E2 x2 | x6 | x6 | x6 | x6 | x6 | x6 | x6 | x2 E2 E2 | x6 | x6 | x6 | x6 | x6 | x4 |] %17
V:3
 [A,,A,]2 | [A,,E,]2 [A,,E,]2 [A,,E,]2 | [A,,E,]2 [C,A,]2 [E,A,]2 | A,3 A, A,2 | A,2 [A,C]2 A,2 | %5
 [A,C]2 [A,C]2 [A,C]2 | [A,C]2 [A,,A,]2 [C,A,]2 | [B,,G,]2 [B,,G,]2 [A,,A,]2 | [E,G,]4 [E,G,]2 | %9
 [F,A,]2 [F,A,]2 [B,,A,]2 | [E,G,]2 [E,G,]2 [E,G,]2 | [E,B,]3 [G,B,] B,2 | %12
 [E,B,]2 [E,G,]2 [G,B,]2 | A,2 [A,C]2 [C,A,]2 | [D,A,]2 [C,=A,]2 [B,,B,]2 | E,2 [E,F,]2 [E,G,]2 | %16
 [A,,A,]4 |] %17
V:4
 x2 | x6 | x6 | A,3 A, A,2 | A,2 A,2 x2 | x6 | x6 | x6 | x6 | x6 | x6 | x4 B,2 | x6 | A,2 x4 | x6 | %15
 E,2 x4 | x4 |] %17

